X:1
T:Karin's Waltz
C:Vivek Apte
R:waltz
Q:175
H:Tune composed for the occasion of Karin Howe's 25th birthday, 9/27/96.
M:3/4
L:1/4
K:D
"D" D F A|"F#m" D F A|"Bm7" D F A|"D7" f2 e/d/|"G" d c B|"D" d c B|
"G" B A G|"A7" A3/ G/F/E/|"D" D F A|"F#m" D F A|"Bm7" D F A|"D7" f2 e/d/|
"G" d f a|"D" a2 g/f/ |1 "A7" e2 d/c/|"D" d3 :|2 "A7" e2 a/c/|"D" d2|]
f/g/|"F#m" a3/ g/f/e/|"Bm7" d e f|"Em" g B e|"A" d c B|"A" A c e|"A7" A c e|
"F#m" a a/g/f/e/|"D" f f/e/ d|"F#m" a3/ g/f/e/|"Bm7" d e f|"Em" g B e|"A" d c B|
"A7" A c e|"D" a g f |1 "A7" e/a> c2|"D" d2 :|2 "A7" e2 d/c/|"D" d3|]
